X:526
T:Miss Linda MacFarlane #2 
C:Joe Buchanan's Scottish Tome - Page 027.2
I:027 2
C:Robin Brock
R:Reel
Z:Carl Allison
L:1/8
M:4/4
K:Gmaj
"D7"D2 |"D7" G2 "G"(F>G) "G"DGBd | "D7"d2 cA "G"G2 (F>G) | "C"E2 (e>d)"G" cBAG |"Am" B2 A2 "D7"A2 D2 |
"G"G2 (F>G) "G"DGBd | "D7"d2 "Em"(c>A) "G"G2 (F>G) |"C" E2 (e>d) cFBA |"G" G2 "D7"(G>A) (B>c) |
"G"d2 (B>c) "G7"dBgf |"C" e2 (c>d) ecgd | "G"d2 (D>G) Bdgd |"Am" B2 A2 "D7" A2 D2 |
"G"G2 (F>G)"G" DGBd |"D7" d2 (c>A)"Em" G2 "D"(F>G) | "C"E2 (e>d) "D"cFBA |"G" G2 "D"(G>A)"G" G2 |]

